X:1946
T:Polska efter Gelotte
R:Polska
O:Uppland
D:Peter "Puma" Hedlund - Vägen, spår 9
S:efter Wilhelm Gelotte
M:3/4
L:1/16
Z:Nils L
K:Dm
V:1
Ad^cd A2G2 FEFG | A2A2 E2E2 D4 | f4 agfe gfed | ^cdec Td2A2 F2D2 |
Ad^cd A2G2 FEFG | A2A2 E2E2 D4 | f4 agfe gfed |1 ^cdec d8 :|2 ^cdec d6 fe |:
f2c2 c2f2 fagf | e2c2 c2e2 egfe | f2c2 c2f2 fagf | e2c2 c2e2 egfe | 
fefa e2ef d2de | c2cd B2Bc A2G2 | FEFA E2EF D2DF |1 ED^CE D4 z2fe :|2 ED^CE D8 |]
V:2
I:repbra 0
FAGA F2E2 D2DE | FEFD ^CA,CE A,4 | d4 fed^c edc=B | A2^c2 A2FE D2A,2 |
FAGA F2E2 D2DE | FEFD ^CA,CE A,4 | d4 fed^c edc=B |1 A=B^cA F8 :|2 A=B^cA F4 z2cc |:
c2A2 A2c2 cdef | c2G2 G2c2 cedc | c2A2 A2c2 cdef | c2G2 G2c2 cedc | 
d^cdf c2cd B2Bc | A2AB G2GA F2E2 | D^CDF C2CD A,2A,D |1 ^C=B,A,C A,4 z2cc :|2 ^C=B,A,C A,8 |
(:musicend:)

Ingår i kategorin [[!andrastämma]].
(:Title Hm-valsen:)

(:music:)
